!! 00000] TT[WS
!!!OTL: Dong sinu
!!!ARE: Asia, China,ÿShanxi Linxian
!! Ethnic Group: Han
!! WI, 181 (2)
!!!SCT: J0214
!!!YEM: Copyright 1995, estate of Helmut Schaffrath.
**kern
*ICvox
*Ivox
*M4/4
*k[]
*C:
{8dd
8gg
8ee
8gg
8dd
8cc
8dd
8ee
=1
8gg
4ee
8dd
4.cc
8a
=2
8dd
8gg
8ee
8gg
8dd
8ee
8dd
8cc
=3
8dd
4a
8g
2e}
=4
{8g
4g
8a
4cc
8ee
8gg
=5
8ee
4dd
8g
2a
=6
8ee
4dd
8cc
8dd
8gg
8ee
8dd
=7
8dd
4g
8a
4.cc
8a
=8
8g
8a
8g
8e
2d}
==
!!!AGN: Xiaodiao. Fengsuge, Qingge
!!!ONB: ESAC (Essen Associative Code) Database: CHINA
!!!AMT: simple quadruple
!!!AIN: vox
!!!EED: Helmut Schaffrath
!!!EEV: 1.0
*-
